storage/app/icons/phosphoricons/fill/boat-fill.svg

<svg xmlns="http://www.w3.org/2000/svg" fill="currentColor" viewBox="0 0 256 256"><path d="M221.06 110.59 208 106.23V56a16 16 0 0 0-16-16h-56V24a8 8 0 0 0-16 0v16H64a16 16 0 0 0-16 16v50.23l-13.06 4.36A16 16 0 0 0 24 125.77V152c0 61.54 97.89 86.72 102.06 87.76a8 8 0 0 0 3.88 0C134.11 238.72 232 213.54 232 152v-26.23a16 16 0 0 0-10.94-15.18M136 168a8 8 0 0 1-16 0v-63.13a8 8 0 0 1 16 0Zm56-67.1-61.47-20.49a8 8 0 0 0-5.06 0L64 100.9V56h128Z"/></svg>

<svg xmlns="http://www.w3.org/2000/svg" viewBox="0 0 256 256" fill="currentColor"><path d="M221.06,110.59,208,106.23V56a16,16,0,0,0-16-16H136V24a8,8,0,0,0-16,0V40H64A16,16,0,0,0,48,56v50.23l-13.06,4.36A16,16,0,0,0,24,125.77V152c0,61.54,97.89,86.72,102.06,87.76a8,8,0,0,0,3.88,0C134.11,238.72,232,213.54,232,152V125.77A16,16,0,0,0,221.06,110.59ZM136,168a8,8,0,0,1-16,0V104.87a8,8,0,0,1,16,0Zm56-67.1L130.53,80.41a8,8,0,0,0-5.06,0L64,100.9V56H192Z"/></svg>
